X: 136
T: Paddy on the Railroad
C: R-68
C: Irish
M: C|
Z: Transcribed to abc by Mary Lou Knack
R: reel
K: D
fe| "D"d2dA BAFA| d2dA BAFA| "D"ABde "Bm"f2ed| "Em"deed "A7"egfe|
    "D"d2dA BAFA| ABdA BAFA| "D"ABde "A"fdec| "D"dBAF D2:|
|:\
fg| "D"abag f2fe| d2dA BAFA| ABde "Bm"f2ed| "Em"B2ed "A7"efge|
    "D"abag f2fe| d2dA BAFA| ABde "A"fdec| "D"dBAF D2:|
%%text 5/5/99.  Also known as "Merry Blacksmith".


